Numix-Light/16/status/indicator-keyboard-Ko-1.svg

<?xml version="1.0" encoding="UTF-8" standalone="no"?>
<svg
   xmlns:dc="http://purl.org/dc/elements/1.1/"
   xmlns:cc="http://creativecommons.org/ns#"
   xmlns:rdf="http://www.w3.org/1999/02/22-rdf-syntax-ns#"
   xmlns:svg="http://www.w3.org/2000/svg"
   xmlns="http://www.w3.org/2000/svg"
   xmlns:sodipodi="http://sodipodi.sourceforge.net/DTD/sodipodi-0.dtd"
   xmlns:inkscape="http://www.inkscape.org/namespaces/inkscape"
   viewBox="0 0 16 16"
   id="svg2"
   version="1.1"
   inkscape:version="0.91 r13725"
   sodipodi:docname="indicator-keyboard-Ko-1.svg">
  <metadata
     id="metadata14">
    <rdf:RDF>
      <cc:Work
         rdf:about="">
        <dc:format>image/svg+xml</dc:format>
        <dc:type
           rdf:resource="http://purl.org/dc/dcmitype/StillImage" />
      </cc:Work>
    </rdf:RDF>
  </metadata>
  <defs
     id="defs12" />
  <sodipodi:namedview
     pagecolor="#ffffff"
     bordercolor="#666666"
     borderopacity="1"
     objecttolerance="10"
     gridtolerance="10"
     guidetolerance="10"
     inkscape:pageopacity="0"
     inkscape:pageshadow="2"
     inkscape:window-width="459"
     inkscape:window-height="369"
     id="namedview10"
     showgrid="false"
     inkscape:zoom="14.75"
     inkscape:cx="8"
     inkscape:cy="8"
     inkscape:window-x="65"
     inkscape:window-y="24"
     inkscape:window-maximized="0"
     inkscape:current-layer="svg2" />
  <path
     style="fill:#353535;fill-opacity:1"
     d="M 1.5996094 0 C 0.71320937 2.9605947e-16 0 0.71320937 0 1.5996094 L 0 14.400391 C 2.9605947e-16 15.286791 0.71320937 16 1.5996094 16 L 14.400391 16 C 15.286791 16 16 15.286791 16 14.400391 L 16 1.5996094 C 16 0.71320937 15.286791 0 14.400391 0 L 1.5996094 0 z M 2.0996094 4.859375 L 2.7109375 4.859375 L 2.7109375 7.765625 C 2.9389375 7.561625 3.1907969 7.3284531 3.4667969 7.0644531 C 3.7487969 6.7944531 4.0249219 6.5239062 4.2949219 6.2539062 C 4.5709219 5.9839063 4.8283594 5.7264687 5.0683594 5.4804688 C 5.3083594 5.2344688 5.5005313 5.027375 5.6445312 4.859375 L 6.3828125 4.859375 C 6.2088125 5.045375 5.9999062 5.2673906 5.7539062 5.5253906 C 5.5079062 5.7773906 5.2467031 6.0385937 4.9707031 6.3085938 C 4.6947031 6.5785938 4.4185781 6.845375 4.1425781 7.109375 C 3.8725781 7.367375 3.6281094 7.5949688 3.4121094 7.7929688 C 3.5861094 7.9009687 3.7727031 8.0352656 3.9707031 8.1972656 C 4.1747031 8.3532656 4.3799844 8.5287031 4.5839844 8.7207031 C 4.7939844 8.9067031 4.9973125 9.1044531 5.1953125 9.3144531 C 5.3993125 9.5184531 5.5877187 9.7255469 5.7617188 9.9355469 C 5.9417188 10.145547 6.1002812 10.348875 6.2382812 10.546875 C 6.3822813 10.744875 6.4998438 10.927703 6.5898438 11.095703 L 5.90625 11.095703 C 5.70225 10.783703 5.4708906 10.475922 5.2128906 10.169922 C 4.9608906 9.8639217 4.6941094 9.5746875 4.4121094 9.3046875 C 4.1301094 9.0346875 3.8428281 8.7884062 3.5488281 8.5664062 C 3.2608281 8.3444063 2.9809375 8.1597656 2.7109375 8.0097656 L 2.7109375 11.095703 L 2.0996094 11.095703 L 2.0996094 4.859375 z M 9.2167969 6.3359375 C 9.5287969 6.3359375 9.8142656 6.395625 10.072266 6.515625 C 10.330266 6.629625 10.552281 6.7937656 10.738281 7.0097656 C 10.930281 7.2197656 11.075734 7.4753906 11.177734 7.7753906 C 11.285734 8.0753906 11.339844 8.4074375 11.339844 8.7734375 C 11.339844 9.1394375 11.285734 9.4734375 11.177734 9.7734375 C 11.075734 10.073438 10.930281 10.327109 10.738281 10.537109 C 10.552281 10.747109 10.330266 10.913203 10.072266 11.033203 C 9.8142656 11.147203 9.5287969 11.203125 9.2167969 11.203125 C 8.9047969 11.203125 8.6193281 11.147203 8.3613281 11.033203 C 8.1033281 10.913203 7.8795 10.747109 7.6875 10.537109 C 7.5015 10.327109 7.3540937 10.073438 7.2460938 9.7734375 C 7.1440938 9.4734375 7.0917969 9.1394375 7.0917969 8.7734375 C 7.0917969 8.4074375 7.1440938 8.0753906 7.2460938 7.7753906 C 7.3540937 7.4753906 7.5015 7.2197656 7.6875 7.0097656 C 7.8795 6.7937656 8.1033281 6.629625 8.3613281 6.515625 C 8.6193281 6.395625 8.9047969 6.3359375 9.2167969 6.3359375 z M 9.2167969 6.8652344 C 8.7547969 6.8652344 8.3891406 7.0406719 8.1191406 7.3886719 C 7.8491406 7.7306719 7.7128906 8.1914375 7.7128906 8.7734375 C 7.7128906 9.3554375 7.8491406 9.818156 8.1191406 10.160156 C 8.3891406 10.502156 8.7547969 10.673828 9.2167969 10.673828 C 9.6787969 10.673828 10.044453 10.502156 10.314453 10.160156 C 10.584453 9.8181561 10.71875 9.3554375 10.71875 8.7734375 C 10.71875 8.1914375 10.584453 7.7306719 10.314453 7.3886719 C 10.044453 7.0406719 9.6787969 6.8652344 9.2167969 6.8652344 z M 13.632812 8.8417969 L 13.900391 8.8417969 L 13.900391 12.896484 L 13.521484 12.896484 L 13.521484 9.421875 C 13.478584 9.468675 13.421762 9.5157063 13.351562 9.5664062 C 13.285262 9.6171063 13.208847 9.66805 13.123047 9.71875 C 13.037247 9.76555 12.947116 9.812575 12.853516 9.859375 C 12.759916 9.902275 12.665866 9.9375437 12.572266 9.9648438 L 12.460938 9.671875 C 12.694938 9.5899751 12.904591 9.4880813 13.087891 9.3632812 C 13.271191 9.2345813 13.453413 9.0601969 13.632812 8.8417969 z "
     id="path4" />
</svg>

<svg xmlns="http://www.w3.org/2000/svg" viewBox="0 0 16 16">
 <path d="m 1.6 0 c -0.886 0 -1.6 0.713 -1.6 1.6 l 0 12.801 c 0 0.886 0.713 1.6 1.6 1.6 l 12.801 0 c 0.886 0 1.6 -0.713 1.6 -1.6 l 0 -12.801 c 0 -0.886 -0.713 -1.6 -1.6 -1.6 l -12.801 0 z m 0.5 4.859 l 0.611 0 l 0 2.906 c 0.228 -0.204 0.48 -0.437 0.756 -0.701 c 0.282 -0.27 0.558 -0.541 0.828 -0.811 c 0.276 -0.27 0.533 -0.527 0.773 -0.773 c 0.24 -0.246 0.432 -0.453 0.576 -0.621 l 0.738 0 c -0.174 0.186 -0.383 0.408 -0.629 0.666 c -0.246 0.252 -0.507 0.513 -0.783 0.783 c -0.276 0.27 -0.552 0.537 -0.828 0.801 c -0.27 0.258 -0.514 0.486 -0.73 0.684 c 0.174 0.108 0.361 0.242 0.559 0.404 c 0.204 0.156 0.409 0.331 0.613 0.523 c 0.21 0.186 0.413 0.384 0.611 0.594 c 0.204 0.204 0.392 0.411 0.566 0.621 c 0.18 0.21 0.339 0.413 0.477 0.611 c 0.144 0.198 0.262 0.381 0.352 0.549 l -0.684 0 c -0.204 -0.312 -0.435 -0.62 -0.693 -0.926 c -0.252 -0.306 -0.519 -0.595 -0.801 -0.865 c -0.282 -0.27 -0.569 -0.516 -0.863 -0.738 c -0.288 -0.222 -0.568 -0.407 -0.838 -0.557 l 0 3.086 l -0.611 0 l 0 -6.236 z m 7.117 1.477 c 0.312 0 0.597 0.06 0.855 0.18 c 0.258 0.114 0.48 0.278 0.666 0.494 c 0.192 0.21 0.337 0.466 0.439 0.766 c 0.108 0.3 0.162 0.632 0.162 0.998 c 0 0.366 -0.054 0.7 -0.162 1 c -0.102 0.3 -0.247 0.554 -0.439 0.764 c -0.186 0.21 -0.408 0.376 -0.666 0.496 c -0.258 0.114 -0.543 0.17 -0.855 0.17 c -0.312 0 -0.597 -0.056 -0.855 -0.17 c -0.258 -0.12 -0.482 -0.286 -0.674 -0.496 c -0.186 -0.21 -0.333 -0.464 -0.441 -0.764 c -0.102 -0.3 -0.154 -0.634 -0.154 -1 c 0 -0.366 0.052 -0.698 0.154 -0.998 c 0.108 -0.3 0.255 -0.556 0.441 -0.766 c 0.192 -0.216 0.416 -0.38 0.674 -0.494 c 0.258 -0.12 0.543 -0.18 0.855 -0.18 z m 0 0.529 c -0.462 0 -0.828 0.175 -1.098 0.523 c -0.27 0.342 -0.406 0.803 -0.406 1.385 c 0 0.582 0.136 1.045 0.406 1.387 c 0.27 0.342 0.636 0.514 1.098 0.514 c 0.462 0 0.828 -0.172 1.098 -0.514 c 0.27 -0.342 0.404 -0.805 0.404 -1.387 c 0 -0.582 -0.134 -1.043 -0.404 -1.385 c -0.27 -0.348 -0.636 -0.523 -1.098 -0.523 z m 4.416 1.977 l 0.268 0 l 0 4.055 l -0.379 0 l 0 -3.475 c -0.043 0.047 -0.1 0.094 -0.17 0.145 c -0.066 0.051 -0.143 0.102 -0.229 0.152 c -0.086 0.047 -0.176 0.094 -0.27 0.141 c -0.094 0.043 -0.188 0.078 -0.281 0.105 l -0.111 -0.293 c 0.234 -0.082 0.444 -0.184 0.627 -0.309 c 0.183 -0.129 0.366 -0.303 0.545 -0.521 z" style="fill:#353535;fill-opacity:1"/>
</svg>
